packages/dnb-ui-lib/assets/icons/car_2_medium.svg

<svg width="24" height="24" viewBox="0 0 24 24" fill="none" xmlns="http://www.w3.org/2000/svg">
<path d="M18.5688 11.4412C19.739 11.4396 20.8621 11.9957 21.6925 12.9878C22.5229 13.9799 22.993 15.3273 23 16.7353C23 17.2033 22.8455 17.6522 22.5704 17.9831C22.2954 18.3141 21.9223 18.5 21.5334 18.5C21.0222 18.5 20.5111 18.5 20 18.5M18.5688 11.4412C18.5688 11.4412 16.3688 3.5 10.5023 3.5C10.3352 3.5 10.1677 3.50455 10 3.51385M18.5688 11.4412L10 11.44M10 11.44V3.51385M10 11.44H1.71805M3.718 18.5C3.718 19.6046 4.61343 20.5 5.718 20.5C6.73791 20.5 7.5795 19.7366 7.70253 18.75M3.718 18.5C3.718 17.3954 4.61343 16.5 5.718 16.5C6.82257 16.5 7.718 17.3954 7.718 18.5C7.718 18.5847 7.71274 18.6681 7.70253 18.75M3.718 18.5L2.43574 18.5C2.24185 18.4997 2.05001 18.4523 1.87177 18.3605C1.69352 18.2687 1.53255 18.1345 1.39855 17.9659C1.26454 17.7973 1.16027 17.5978 1.09202 17.3794C1.02376 17.1611 0.992922 16.9284 1.00136 16.6953C1.07672 14.6748 1.32833 12.9332 1.71805 11.44M20 18.5C20 19.6046 19.1046 20.5 18 20.5C16.9801 20.5 16.1385 19.7366 16.0155 18.75M20 18.5C20 17.3954 19.1046 16.5 18 16.5C16.8954 16.5 16 17.3954 16 18.5C16 18.5847 16.0053 18.6681 16.0155 18.75M10 3.51385C6.63882 3.7002 3.19142 5.79483 1.71805 11.44M7.70253 18.75H16.0155" stroke="black" stroke-width="1.5" stroke-linecap="round" stroke-linejoin="round"/>
</svg>

<svg width="24" height="24" viewBox="0 0 24 24" fill="none" xmlns="http://www.w3.org/2000/svg"><path d="M18.569 11.441c1.17-.001 2.293.555 3.123 1.547.83.992 1.301 2.34 1.308 3.747 0 .468-.154.917-.43 1.248-.275.331-.648.517-1.037.517H20m-1.431-7.059S16.369 3.5 10.502 3.5c-.167 0-.334.005-.502.014m8.569 7.927L10 11.44m0 0V3.514m0 7.926H1.718m2 7.06a2 2 0 003.985.25m-3.985-.25a2 2 0 113.985.25m-3.985-.25H2.436c-.194 0-.386-.048-.564-.14a1.465 1.465 0 01-.473-.394 1.81 1.81 0 01-.307-.587 2.05 2.05 0 01-.09-.684c.075-2.02.326-3.762.716-5.255M20 18.5a2 2 0 01-3.985.25M20 18.5a2 2 0 10-3.985.25M10 3.514c-3.361.186-6.809 2.28-8.282 7.926m5.985 7.31h8.313" stroke="#000" stroke-width="1.5" stroke-linecap="round" stroke-linejoin="round"/></svg>
